brandFactory_export/3.Masa/Error_3Masa.svg

<?xml version="1.0" encoding="UTF-8"?>
<svg width="24px" height="24px" viewBox="0 0 24 24" version="1.1" xmlns="http://www.w3.org/2000/svg" xmlns:xlink="http://www.w3.org/1999/xlink">
    <title>3.Masa/Error_3Masa</title>
    <g id="Symbols" stroke="none" stroke-width="1" fill="none" fill-rule="evenodd">
        <g id="3.Masa/Error_3Masa" fill="#5CB615" fill-rule="nonzero">
            <path d="M8.4302521,15.4420168 C8.02352941,15.4420168 7.69411765,15.1092437 7.69411765,14.702521 L7.69411765,9.33445378 C7.69411765,8.92436975 8.02352941,8.59495798 8.4302521,8.59495798 C8.83697479,8.59495798 9.16638655,8.92773109 9.16638655,9.33445378 L9.16638655,14.702521 C9.16638655,15.112605 8.83697479,15.4420168 8.4302521,15.4420168 L8.4302521,15.4420168 Z M8.43697479,17.3714286 C8.01344538,17.3714286 7.66722689,17.0252101 7.66722689,16.5983193 C7.66722689,16.1714286 8.01008403,15.8252101 8.43697479,15.8252101 C8.8605042,15.8252101 9.20672269,16.1714286 9.20672269,16.5983193 C9.20336134,17.0252101 8.8605042,17.3714286 8.43697479,17.3714286 L8.43697479,17.3714286 Z M19.5663866,6.93445378 L22.3865546,6.93445378 L16.4941176,1.20672269 L16.4941176,3.96302521 C16.4941176,4.84033613 16.789916,5.58319328 17.3277311,6.11764706 C17.8756303,6.64537815 18.6521008,6.93445378 19.5663866,6.93445378 L19.5663866,6.93445378 Z M6.28571429,18.7630252 L15.0386555,18.8033613 L8.4,5.38151261 L5.81512605,10.5176471 L1.6605042,18.7529412 L5.81512605,18.7630252 L6.28571429,18.7630252 L6.28571429,18.7630252 Z M23.5831933,6.84369748 C23.5932773,6.86386555 23.6134454,6.95462185 23.6235294,7.06218487 L23.6235294,22.1815126 C23.6235294,22.9613445 22.9445378,23.6235294 22.1512605,23.6235294 L7.28067227,23.6235294 C6.50420168,23.6235294 5.81848739,22.9512605 5.81848739,22.1815126 L5.81848739,20.2453782 L1.19327731,20.2352941 L1.18319328,20.2352941 C0.544537815,20.2352941 0.0134453782,19.7109244 0.00336134454,19.0588235 C0.00336134454,18.8504202 0.0537815126,18.6554622 0.141176471,18.4773109 L5.81848739,7.24033613 L5.81848739,1.45210084 C5.81848739,0.692436975 6.51428571,0 7.28067227,0 L16.3361345,0 C16.4235294,0 16.5310924,0.0201680672 16.6319328,0.0605042017 C16.6420168,0.0605042017 16.6521008,0.0605042017 16.6521008,0.0705882353 L16.6722689,0.0705882353 C16.7394958,0.0907563025 16.8470588,0.178151261 16.907563,0.238655462 L16.9176471,0.238655462 L17.4184874,0.732773109 L23.3815126,6.53109244 C23.4689076,6.61848739 23.5193277,6.69915966 23.5495798,6.7697479 C23.5596639,6.77983193 23.5596639,6.78991597 23.5697479,6.81008403 C23.5630252,6.81344538 23.5731092,6.83361345 23.5831933,6.84369748 Z" id="Error_3Masa"></path>
        </g>
    </g>
</svg>

<svg width="24" height="24" viewBox="0 0 24 24" xmlns="http://www.w3.org/2000/svg"><path d="M8.43 15.442a.739.739 0 01-.736-.74V9.335a.737.737 0 111.472 0v5.369c0 .41-.329.739-.736.739zm.007 1.93a.773.773 0 010-1.547.773.773 0 010 1.546zm11.13-10.438h2.82l-5.893-5.727v2.756c0 .877.296 1.62.834 2.155.548.527 1.324.816 2.238.816zM6.285 18.763l8.753.04L8.4 5.382l-2.585 5.136-4.154 8.235 4.154.01h.47zm17.297-11.92c.01.02.03.112.04.22v15.119c0 .78-.678 1.442-1.472 1.442H7.281c-.777 0-1.463-.673-1.463-1.442v-1.937l-4.625-.01h-.01c-.638 0-1.17-.524-1.18-1.176 0-.209.05-.404.138-.582L5.818 7.24V1.452C5.818.692 6.514 0 7.281 0h9.055a.83.83 0 01.296.06c.01 0 .02 0 .02.01h.02c.067.02.175.108.236.169h.01l.5.494 5.964 5.798a.763.763 0 01.168.239c.01.01.01.02.02.04-.007.003.003.024.013.034z" fill="#5CB615" fill-rule="nonzero"/></svg>
